!! Isochronous pitch passage.
!! Bass-line.
!! From Fitzwilliam Virginal Book Vol. 1, No. 2, John Munday, measure 60ff.
!! Bass
!! 9/8 meter
**kern	**metpos
*M9/8	*M9/8
*tb16	*tb16
=60	=60
16C	1
16D	4
16E	3
16F	4
16G	3
16C	4
16D	2
16E	4
16F	3
16G	4
16A	3
16B	4
16c	2
16C	4
16E	3
16F	4
16G	3
16GG	4
=61	=61
16AA	1
16BB	4
16C	3
16D	4
16E	3
16F	4
16G	2
16GG	4
16AA	3
16BB	4
16C	3
16D	4
16E	2
16F	4
16G	3
16A	4
16B	3
16c	4
=62	=62
16d	1
16B	4
16c	3
16A	4
16B	3
16G	4
16d	2
16D	4
16F#	3
16D	4
16G#	3
16E	4
16A	2
16AA	4
16C	3
16AA	4
16D	3
16BB	4
=63	=63
16AA	1
16BB	4
16C	3
16C	4
16D	3
16E	4
16F	2
16D	4
16D	3
16E	4
16F	3
16G	4
16A	2
16F	4
16F	3
16G	4
16A	3
16B	4
=64	=64
16c	1
16C	4
16E	3
16C	4
16G	3
16GG	4
16D	2
16E	4
16F	3
16D	4
16F	3
16G	4
16A	2
16AA	4
16C	3
16AA	4
16E	3
16EE	4
=65	=65
16AA	1
16A	4
16G#	3
16E	4
16AA	3
16A	4
16D	2
16d	4
16cn	3
16A	4
16d	3
16D	4
16c	2
16A	4
16d	3
16B	4
16e	3
16E	4
=66	=66
16A	1
16B	4
16c	3
16F	4
16A	3
16D	4
16E	2
16F	4
16G	3
16C	4
16D	3
16BB	4
16AA	2
16BB	4
16C	3
16CC	4
16GG	3
16DD	4
=67	=67
16AA	1
16BB	4
16C	3
16D	4
16E	3
16F	4
16G	2
16A	4
16B	3
16c	4
16d	3
16e	4
16f	2
16e	4
16d	3
16c	4
16B	3
16A	4
=68	=68
16G	1
16A	4
16B	3
16c	4
16d	3
16G	4
16c	2
16F	4
16c	3
16A	4
16B	3
16G	4
16d	2
16A	4
16c	3
16A	4
16B	3
16G	4
=69	=69
16D	1
16E	4
16F	3
16G	4
16A	3
16D	4
16G	2
16C	4
16G	3
16E	4
16F	3
16D	4
16A	2
16E	4
16G	3
16E	4
16F	3
16D	4
=70	=70
*-	*-
